icons/fill-new-people-check.svg

<svg xmlns="http://www.w3.org/2000/svg" width="32px" height="32px" viewBox="0 0 32 32" version="1.1">
    <title>fill-new-people-check</title>
    <g id="fill-new-people-check" stroke-width="1" fill-rule="evenodd">
        <path d="M23,16 C26.8659932,16 30,19.1340068 30,23 C30,26.8659932 26.8659932,30 23,30 C19.1340068,30 16,26.8659932 16,23 C16,19.1340068 19.1340068,16 23,16 Z M15.5162589,17.9989396 C14.5585477,19.4292479 14,21.1493961 14,23 C14,25.3053753 14.8667953,27.4082996 16.2922591,29.0006464 L5,29 C4.44771525,29 4,28.5522847 4,28 L4,23 C4,20.2385763 6.23857625,18 9,18 L15.5162589,17.9989396 Z M25.2928932,20.7928932 L22.5,23.585 L21.2071068,22.2928932 C20.8165825,21.9023689 20.1834175,21.9023689 19.7928932,22.2928932 C19.4023689,22.6834175 19.4023689,23.3165825 19.7928932,23.7071068 L21.7928932,25.7071068 C22.1834175,26.0976311 22.8165825,26.0976311 23.2071068,25.7071068 L26.7071068,22.2071068 C27.0976311,21.8165825 27.0976311,21.1834175 26.7071068,20.7928932 C26.3165825,20.4023689 25.6834175,20.4023689 25.2928932,20.7928932 Z M16,2 C19.8659932,2 23,5.13400675 23,9 C23,12.8659932 19.8659932,16 16,16 C12.1340068,16 9,12.8659932 9,9 C9,5.13400675 12.1340068,2 16,2 Z" id="&#24418;&#29366;" />
    </g>
</svg>

<svg xmlns="http://www.w3.org/2000/svg" viewBox="0 0 32 32"><path fill="currentColor" d="M23 16a7 7 0 1 1 0 14 7 7 0 0 1 0-14m-7.484 1.999A8.958 8.958 0 0 0 14 23c0 2.305.867 4.408 2.292 6H5a1 1 0 0 1-1-1v-5a5 5 0 0 1 5-5zm9.777 2.794L22.5 23.585l-1.293-1.292a1 1 0 0 0-1.414 1.414l2 2a1 1 0 0 0 1.414 0l3.5-3.5a1 1 0 0 0-1.414-1.414M16 2a7 7 0 1 1 0 14 7 7 0 0 1 0-14"/></svg>
